!!!OTL: Mom is the Best In the World
!!!OTL@@CHN: 世上只有妈妈好
!!!ARE: China
**kern
*clefG2
*M4/4
*k[]
*MM80
{4.a
8g
4e
4g
=1
4cc
8a
8g
2a}
=2
{4e
8g
8a
4g
4e
=3
8c
8A
8g
8e
2d}
=4
{4.d
8e
4g
8g
8a
=5
4e
4d
2c}
=6
{4.g
8e
8d
8c
8A
8c
=7
2G
2r}
==
*-
